X: 2181
T: LORD MOIRA'S WELCOME
Q: "Strathspey."
R: Strathspey.
%R: strathspey
B: James Kerr "Merry Melodies" v.2 p.21 #181
Z: 2016 John Chambers <jc:trillian.mit.edu>
N: There are no double bars anywhere but at the end; one added between bars 8,9.
M: C
L: 1/16
K: F
[|\
vFF3F3uG (Ac3) c4 | vB3vGuA3uF vG3uFEC3 |\
FF3F3F (Ac3) c4 | defd efge vf3ve (fa3) |\
vFF3F3uG (Ac3) c4 | vB3vGuA3uF G3FEC3 |
FF3F3F (Ac3) c4 | defd efge vf3ve (fa3) ||\
vff3a3uf vg3ufec3 | vdd3f3ud vc3uBAF3 |\
ff3a3f g3fec3 |
defd efge f4 (f2ga) |\
vb3vgua3uf g3fd3f | c3Af3c BAGF G3uA |\
FA3 GB3 Ac3 Bd3 | vc3uf agfe gfed cBAG |]
